packages/kaspersky-hexa-ui-icons/src/iconsSVGs/24/Attachment.svg

<svg width="24" height="24" viewBox="0 0 24 24" fill="none" xmlns="http://www.w3.org/2000/svg">
<path d="M13.5195 2.7805C15.2252 1.07479 17.9907 1.07479 19.6965 2.7805C21.4022 4.48621 21.4022 7.25171 19.6965 8.95742L12.0087 16.645C10.9581 17.6956 9.25468 17.6956 8.20405 16.645C7.15343 15.5944 7.15343 13.891 8.20405 12.8404L14.5676 6.47682C14.9582 6.08629 15.5913 6.08629 15.9818 6.47682C16.3724 6.86734 16.3724 7.5005 15.9818 7.89103L9.61827 14.2546C9.34869 14.5242 9.34869 14.9612 9.61827 15.2308C9.88784 15.5004 10.3249 15.5004 10.5945 15.2308L16.9581 8.86724C16.9615 8.86384 16.9649 8.86047 16.9683 8.85713L18.2822 7.54321C19.2069 6.61855 19.2069 5.11937 18.2822 4.19471C17.3576 3.27005 15.8584 3.27005 14.9337 4.19472L5.81533 13.313C4.25557 14.8727 4.25557 17.4016 5.81533 18.9613C7.37508 20.5211 9.90395 20.5211 11.4637 18.9613L19.2579 11.1671C19.6484 10.7766 20.2816 10.7766 20.6721 11.1671C21.0627 11.5577 21.0627 12.1908 20.6721 12.5814L12.8779 20.3755C10.5371 22.7163 6.74192 22.7163 4.40111 20.3755C2.06031 18.0347 2.06031 14.2396 4.40111 11.8988L13.5195 2.7805Z" fill="black"/>
</svg>

<svg xmlns="http://www.w3.org/2000/svg" width="24" height="24" fill="none" viewBox="0 0 24 24"><path fill="#000" d="M13.5197 2.7804c1.7057-1.7057 4.4712-1.7057 6.1769 0s1.7058 4.4712 0 6.1769l-7.6877 7.6876c-1.0506 1.0506-2.754 1.0506-3.8047 0s-1.0506-2.754 0-3.8046l6.3636-6.3636c.3905-.3905 1.0237-.3905 1.4142 0 .3906.3905.3906 1.0237 0 1.4142l-6.3635 6.3636a.6903.6903 0 1 0 .9762.9762l6.3635-6.3636.0103-.0101 1.3139-1.314c.9247-.9246.9247-2.4237 0-3.3484s-2.4238-.9247-3.3485 0l-9.1184 9.1182c-1.5598 1.5598-1.5598 4.0887 0 5.6484 1.5598 1.5598 4.0886 1.5598 5.6484 0l7.7942-7.7942c.3905-.3905 1.0237-.3905 1.4142 0s.3905 1.0237 0 1.4142l-7.7942 7.7942c-2.3408 2.3408-6.136 2.3408-8.4768 0s-2.3408-6.136 0-8.4768z"/></svg>
